X:1
T:Title
%%score { 1 | ( 2 3 ) }
L:1/8
M:6/8
K:G
V:1 treble nm="Grand Piano"
V:2 bass 
V:3 bass 
V:1
 z3 z2[Q:1/4=100] B | B2 [DB] .[CA]2 [G,CE] | [B,G]2 [B,G] [G,B,D]2 [B,D] | %3
 [B,EG]2 [B,EG] .[^CGB]2 [CG] | [GB]2 [FA] [FA]2 [Fd] | B2 [DB] .[CA]2 [G,CE] | %6
 [B,G]2 [B,G] [G,B,D]2 [B,E] | [A,DF]3[K:bass] [G,^CE]3 |[M:5/8] [F,D]-[F,D]- [F,D]3 | %9
[M:1/8][K:treble] d |[M:3/4] d4- dB | B4- BG | [EG]2 [EA] [EG]2 [Ec] | B4- Bd | %14
 d2 B [^DB]2 [B,DF] | [B,FA]2 [B,EG] [CEG]2 [EA] | [DGB]3 [CDA]3 |[M:5/8] [B,DG]-[B,DG]- [B,DG]3 |] %18
V:2
 z3 z2 [G,D] | [G,D]2 [G,,G,] z GG,, | [G,,D,]2 [G,,D,] G,,2 G, | D,2 E, z AE, | %4
 [D,D]2 [D,D] [D,D]2 [D,A,] | [G,D]2 [G,,G,] z GG,, | [G,,D,]2 [G,,D,] G,,2 G,, | A,,3 A,,3 | %8
[M:5/8] D,-D,- D,3 |[M:1/8][K:treble] B |[M:3/4] B4- BD | D4- D[K:bass][G,B,D] | %12
 [C,C]2 [C,C] [C,C]2 [C,G,] | [G,D]4- [G,D][G,B,G] | [G,B,G]2 [G,D][K:bass] [B,,F,]2 B,, | %15
 E,2 E, C,2 C, | D,3 D,3 |[M:5/8] G,,-G,,- G,,3 |] %18
V:3
 x6 | z3 .[G,,E,]3 | x6 | z3 .E,3 | x6 | z3 .[G,,E,]3 | x6 | x6 |[M:5/8] x5 |[M:1/8][K:treble] x | %10
[M:3/4] x6 | x5[K:bass] x | x6 | x6 | x3[K:bass] x3 | x6 | x6 |[M:5/8] x5 |] %18

